GWA/img/google.svg

<svg width="116" height="38" viewBox="0 0 116 38" fill="none" xmlns="http://www.w3.org/2000/svg">
<path d="M28.8974 13.3689H15.4464V17.3602H24.9858C24.5146 22.9572 19.8581 25.3441 15.4626 25.3441C9.83899 25.3441 4.93188 20.9195 4.93188 14.7178C4.93188 8.67652 9.60964 4.02384 15.475 4.02384C20.0002 4.02384 22.6666 6.90856 22.6666 6.90856L25.4613 4.01452C25.4613 4.01452 21.8743 0.0212402 15.3321 0.0212402C7.00233 0.0212402 0.557617 7.05228 0.557617 14.6467C0.557617 22.0884 6.61999 29.3452 15.5448 29.3452C23.3948 29.3452 29.1409 23.9677 29.1409 16.0161C29.1409 14.3385 28.8974 13.3689 28.8974 13.3689Z" fill="#4285F4"/>
<path d="M39.9159 10.4783C34.3968 10.4783 30.4414 14.7931 30.4414 19.8256C30.4414 24.9324 34.2779 29.3276 39.9808 29.3276C45.1435 29.3276 49.373 25.3816 49.373 19.9354C49.373 13.6932 44.4531 10.4783 39.9159 10.4783ZM39.9708 14.1803C42.685 14.1803 45.2569 16.3745 45.2569 19.9104C45.2569 23.3712 42.6958 25.6281 39.9584 25.6281C36.9504 25.6281 34.5775 23.219 34.5775 19.883C34.5775 16.6185 36.921 14.1803 39.9708 14.1803Z" fill="#EA4335"/>
<path d="M60.5229 10.4783C55.0037 10.4783 51.0483 14.7931 51.0483 19.8256C51.0483 24.9324 54.8848 29.3276 60.5877 29.3276C65.7504 29.3276 69.98 25.3816 69.98 19.9354C69.98 13.6932 65.06 10.4783 60.5229 10.4783ZM60.5778 14.1803C63.292 14.1803 65.8638 16.3745 65.8638 19.9104C65.8638 23.3712 63.3028 25.6281 60.5653 25.6281C57.5573 25.6281 55.1844 23.219 55.1844 19.883C55.1844 16.6185 57.5279 14.1803 60.5778 14.1803Z" fill="#FBBC05"/>
<path d="M80.733 10.4885C75.667 10.4885 71.6851 14.9256 71.6851 19.9057C71.6851 25.5785 76.3016 29.3403 80.6457 29.3403C83.3318 29.3403 84.7601 28.2741 85.8145 27.0503V28.9087C85.8145 32.1604 83.8402 34.1075 80.8602 34.1075C77.9814 34.1075 76.5374 31.9669 76.0357 30.7523L72.4135 32.2665C73.6985 34.9835 76.2852 37.817 80.8902 37.817C85.927 37.817 89.766 34.6444 89.766 27.9907V11.0548H85.8145V12.6514C84.6004 11.3422 82.9389 10.4885 80.733 10.4885ZM81.0997 14.183C83.5835 14.183 86.1339 16.3038 86.1339 19.9256C86.1339 23.6069 83.5889 25.6358 81.0448 25.6358C78.3441 25.6358 75.8311 23.4428 75.8311 19.9606C75.8311 16.3422 78.441 14.183 81.0997 14.183Z" fill="#4285F4"/>
<path d="M107.335 10.4656C102.557 10.4656 98.5444 14.2676 98.5444 19.8777C98.5444 25.8141 103.017 29.3348 107.794 29.3348C111.782 29.3348 114.229 27.1533 115.69 25.1988L112.432 23.0309C111.587 24.343 110.173 25.6253 107.814 25.6253C105.165 25.6253 103.947 24.1745 103.192 22.769L115.83 17.5253L115.174 15.9886C113.952 12.9792 111.104 10.4656 107.335 10.4656ZM107.5 14.0902C109.222 14.0902 110.461 15.0058 110.988 16.1034L102.548 19.6308C102.184 16.8999 104.772 14.0902 107.5 14.0902Z" fill="#EA4335"/>
<path d="M92.52 28.7754H96.6711V0.995361H92.52V28.7754Z" fill="#34A853"/>
</svg>

<svg width="116" height="38" fill="none" xmlns="http://www.w3.org/2000/svg"><path d="M28.897 13.369h-13.45v3.991h9.539c-.471 5.597-5.128 7.984-9.523 7.984-5.624 0-10.531-4.425-10.531-10.626 0-6.041 4.678-10.694 10.543-10.694 4.525 0 7.192 2.885 7.192 2.885l2.794-2.894S21.874.02 15.332.02C7.002.021.558 7.052.558 14.647c0 7.441 6.062 14.698 14.987 14.698 7.85 0 13.596-5.377 13.596-13.329 0-1.677-.244-2.647-.244-2.647z" fill="#4285F4"/><path d="M39.916 10.478c-5.52 0-9.475 4.315-9.475 9.348 0 5.106 3.837 9.502 9.54 9.502 5.163 0 9.392-3.946 9.392-9.393 0-6.242-4.92-9.457-9.457-9.457zm.055 3.702c2.714 0 5.286 2.195 5.286 5.73 0 3.461-2.561 5.718-5.299 5.718-3.008 0-5.38-2.409-5.38-5.745 0-3.264 2.343-5.703 5.393-5.703z" fill="#EA4335"/><path d="M60.523 10.478c-5.52 0-9.475 4.315-9.475 9.348 0 5.106 3.837 9.502 9.54 9.502 5.162 0 9.392-3.946 9.392-9.393 0-6.242-4.92-9.457-9.457-9.457zm.055 3.702c2.714 0 5.286 2.195 5.286 5.73 0 3.461-2.561 5.718-5.299 5.718-3.008 0-5.38-2.409-5.38-5.745 0-3.264 2.343-5.703 5.393-5.703z" fill="#FBBC05"/><path d="M80.733 10.489c-5.066 0-9.048 4.437-9.048 9.417 0 5.672 4.617 9.434 8.96 9.434 2.687 0 4.115-1.066 5.17-2.29v1.859c0 3.251-1.975 5.199-4.955 5.199-2.879 0-4.323-2.141-4.824-3.356l-3.623 1.515c1.285 2.716 3.872 5.55 8.477 5.55 5.037 0 8.876-3.173 8.876-9.826V11.055h-3.952v1.596c-1.214-1.309-2.875-2.162-5.081-2.162zm.367 3.694c2.484 0 5.034 2.12 5.034 5.743 0 3.68-2.545 5.71-5.09 5.71-2.7 0-5.213-2.193-5.213-5.675 0-3.619 2.61-5.778 5.269-5.778z" fill="#4285F4"/><path d="M107.335 10.466c-4.778 0-8.79 3.802-8.79 9.412 0 5.936 4.472 9.457 9.249 9.457 3.988 0 6.435-2.182 7.896-4.136l-3.258-2.168c-.845 1.312-2.259 2.594-4.618 2.594-2.649 0-3.867-1.45-4.622-2.856l12.638-5.244-.656-1.536c-1.222-3.01-4.07-5.523-7.839-5.523zm.165 3.624c1.722 0 2.961.916 3.488 2.013l-8.44 3.528c-.364-2.731 2.224-5.54 4.952-5.54z" fill="#EA4335"/><path d="M92.52 28.775h4.151V.995H92.52v27.78z" fill="#34A853"/></svg>
